packages/foundations/assets/icons/functional/images/devices/mobile_phone_14.svg

<svg width="14" height="14" viewBox="0 0 14 14" fill="none" xmlns="http://www.w3.org/2000/svg">
<g clip-path="url(#clip0_185_730)">
<path fill-rule="evenodd" clip-rule="evenodd" d="M9.36524 1.4C9.99417 1.4 10.5 1.91905 10.5 2.5473V11.4527C10.5 12.081 9.99417 12.6 9.36524 12.6H4.63476C4.00583 12.6 3.5 12.081 3.5 11.4527V2.5473C3.5 1.91905 4.00583 1.4 4.63476 1.4H9.36524ZM5.60364 2.8H4.89451V11.2H9.09451V2.8H8.38537V3.51029H5.60364V2.8ZM6.29657 10.5034V9.10343H7.69657V10.5034H6.29657Z" fill="#1A1C1F"/>
</g>
<defs>
<clipPath id="clip0_185_730">
<rect width="14" height="14" fill="white"/>
</clipPath>
</defs>
</svg>

<svg xmlns="http://www.w3.org/2000/svg" width="14" height="14" fill="none"><g clip-path="url(#a)"><path fill="#1A1C1F" fill-rule="evenodd" d="M9.365 1.4c.63 0 1.135.519 1.135 1.147v8.906c0 .628-.506 1.147-1.135 1.147h-4.73A1.143 1.143 0 0 1 3.5 11.453V2.547c0-.628.506-1.147 1.135-1.147zM5.604 2.8h-.71v8.4h4.2V2.8h-.709v.71H5.604zm.693 7.703v-1.4h1.4v1.4z" clip-rule="evenodd"/></g><defs><clipPath id="a"><path fill="#fff" d="M0 0h14v14H0z"/></clipPath></defs></svg>
